!!!!SEGMENT: pl-kk--kk-i-10--014_anonim--a-solis-ortu-cardine.krn
!!!cenid: 16xx:1206
!!!COM: Anonim
!!!COM-rismID: pe30004985
!!!CDT:
!!!CNT:
!!!OTL: A solis ortu cardine
!!!PDT:
!!!AGN: Sacred
!!!SMS-siglum: PL-Kk
!!!SMS-shelfmark: Kk.I.10
!!!SMS-shelfwork: 014 W
!!!SMS-variant:
!!!SMS-altvar:
!!!NIFC-rismSourceID: 1001153898
!!!NIFC-islandoraID: pl-kk:2434
!!!URL-pdf-islandora: https://repozytorium.nifc.pl/islandora/object/pl-kk%3A2434/datastream/PDF/view
!!!URL-scan: https://polish.musicsources.pl/pl/lokalizacje/galeria/rekopisy/5737 @EN{Scan on Polish Music Sources Website} @PL{Skany w portalu Dziedzictwo Muzyki Polskiej w otwartym dostępie}
!!!ONB-nifc: UWAGA: A (skan 0024-0026), T (0073-0074), B (0123-0124). Następny utwór: Crudelis Herodes
!!!AIN: 1 alto 1 bass 1 tenor
!!!key:
**kern	**text	**kern	**text	**kern	**text
*part3	*part3	*part2	*part2	*part1	*part1
*staff3	*staff3	*staff2	*staff2	*staff1	*staff1
*Ibass	*	*Itenor	*	*Ialto	*
*I"Bassus.	*	*I"Tenor	*	*I"Altus.	*
*I'B	*	*I'T	*	*I'A	*
*clefF4	*	*clefC4	*	*clefC3	*
*k[]	*	*k[]	*	*k[]	*
*D:	*	*D:	*	*D:	*
*M2/1	*	*M2/1	*	*M2/1	*
*met(C.)	*	*met(C.)	*	*met(C.)	*
=1-	=1-	=1-	=1-	=1-	=1-
*all\right	*	*all\right	*	*all\right	*
!	!	!	!	!LO:TX:a:t=DE Natiuitate Domini 1682.	!
8r	.	8r	.	8r	.
8D/	A	8F#X/	A	8d\	A
8D/	so-	8A/	so-	8f#X\	So-
8C#X/	-lis	8A/	-lis	8a\	-lis
4D/	or-	4d\	or-	4a\	or-
4AA/	-tus	4c#X\	-tus	4a\	-tu[s]
4.BB/	car-	4.B\	car-	4.a\	car-
8BB/	-di-	8B\	-di-	8g#X\	-di-
!LO:TX:a:t=P:global:problem=oddech jako rozdzielacz słów	!	!	!	!	!
4.AA,</	-ne	4.E/	-ne	4.a\	-ne
8C#X/	ad	8A/	ad	8e\	ad
=2-	=2-	=2-	=2-	=2-	=2-
8D/	Vs-	8d\	Vs-	8f#X\	V-
8C#X,/	-q(ue)	8A/	-q(ue)	8e\	-sq(ue)
8BB/	ter-	8G#X/	ter-	8d\	ter-
8AA/	-rae	8A/	-rae	8e\	-rae
4.E\	li-	4.A/	li-	4.e\	li-
8E\	-mi-	8G#X/	-mi-	8e\	-mi-
4.AA/	-tem	4.c#X\	-tem	4.e\	-tem
*	*	*custos:d	*	*	*
!	!	!	!	!LO:TX:t=P:problem=♯ above	!
8FF#X/	chri-	8A/	Chri-	8f#X\	Chr(i-
*custos:GG	*	*	*	*	*
!	!	!LO:LB:g=original	!	!	!
4FF#/	-ſtum	4.d\	-ſtum	4a\	-st)um
!LO:LB:g=original	!	!	!	!	!
4GG/	ca-	.	.	16gny\LL	ca-
.	.	.	.	16f#\	.
.	.	8d\	ca-	16g\	.
*	*	*	*	*custos:g	*
.	.	.	.	16a\JJ	.
!	!	!	!	!LO:LB:g=original	!
=3-	=3-	=3-	=3-	=3-	=3-
4BB/	-na-	4d\	-na-	8g\L	-na-
.	.	.	.	16a\L	.
.	.	.	.	16g\JJ	.
4C#X/	-mus	4A/	-mus	8f#\L	-mus
.	.	.	.	8e\J	.
4.D/	Prin-	4.A/	Prin-	4.d\	Prin-
8D/	-ci-	8A/	-ci-	8d\	-ci-
4.D/	-pem	4.A/	-pem	4.d\	-pem
8C#X/	Na-	8A/	Na-	8e\	Na-
8BB/	-tum	8d\	-tum	8f#\	-tum
8BB/	Ma-	8d\	Ma-	8f#X\	Ma-
8AA/	-ri-	8e\	-ri-	8a\	-ri
!	!	!	!	!LO:TX:a:t=P:global:problem=oddech jako rozdzielacz słów	!
8C#X/	-a	8e\	-a	8a,<\	-a
=4-	=4-	=4-	=4-	=4-	=4-
(4D/	Vir-	(4f#X\	Vir-	4.a\	Vir-
8.E\)	.	8.e\)	.	.	.
.	.	.	.	8g#X\	.
16E\	-gi-	16e\	-gi-	.	.
4.AA,</	-ne	4.e\	-ne	4.a\	-gi-
8AA/	na-	8e\	Na-	8a,<\	-ne
8.BB/	-tum	8.d\	-tum	8f#\	Na-
.	.	.	.	8f#\	-tum
!	!	!LO:TX:t=P:problem=♯ above	!	!	!
16AA/	.	16c#X\	Ma-	.	.
8GG/	Ma-	8B\	-ri-	8gny\	Ma-
*	*	*custos:d	*	*	*
8FF#X/	-ri-	8d\	-a	8a\	-ri-
!	!	!LO:PB:g=original	!	!	!
4GG/	-a	4.d\	Vir-	8g\L	-a
.	.	.	.	8f#\J	.
8.AA/	Vir-	.	.	8.e\	Vir-
!	!	!LO:TX:t=P:problem=♯ above	!	!	!
.	.	8c#X\	-gi-	.	.
16AA/	-gi-	.	.	16e\	-gi-
=5-	=5-	=5-	=5-	=5-	=5-
*custos:D	*	*	*	*custos:d	*
1D	-ne	1d	-ne	1f#X	-ne
!LO:LB:g=original	!	!	!	!LO:PB:g=original	!
8r	.	8r	.	8r	.
8D/	Be-	8F#X/	Be-	8d\	Be-
8D/	-a-	8A/	-a-	8f#X\	-a-
8C#X/	-tus	8A/	-tus	8a\	-tus
4D/	au-	4d\	au-	4a\	au-
4AA/	-ctor	4c#X\	-ctor	4a\	-ctor
=6-	=6-	=6-	=6-	=6-	=6-
4.BB/	Sae-	4.B\	Sae-	4.a\	Sae-
8BB/	-cu-	8B\	-cu-	8g#X\	-cu-
4.AA/	-li	4.E/	-li	4.a\	-li
8C#X/	Ser-	8A/	Ser-	8e\	Ser-
8D/	-ui-	8d\	-ui-	8f#\	-ui-
8C#X/	-le	8A/	-le	8e\	-le
8BB/	cor-	8G#X/	cor-	8d\	cor-
8AA/	-pus	8A/	-pus	8e\	-pus
4.E\	in-	4.A/	in-	4.e\	in-
8E\	-du-	8G#X/	-du-	8e\	-du-
=7-	=7-	=7-	=7-	=7-	=7-
4.AA/	-it	4.c#X\	-it	4.e\	-it
!	!	!	!	!LO:TX:t=P:problem=♯ above	!
8FF#X/	ut	8A/	ut	8f#X\	ut
4FF#/	car-	4.d\	car-	4a\	car-
4GG/	-ne	.	.	16gny\LL	-ne
.	.	.	.	16f#\	.
.	.	8d\	-ne	16g\	.
.	.	.	.	16a\JJ	.
4BB/	car-	4d\	car-	8g\L	car-
.	.	.	.	16a\L	.
*	*	*	*	*custos:f	*
.	.	.	.	16g\JJ	.
*	*	*custos:A	*	*	*
!	!	!	!	!LO:LB:g=original	!
4C#X/	-nem	4A/	-nem	8f#\L	-nem
.	.	.	.	8e\J	.
!	!	!LO:LB:g=original	!	!	!
4.D/	li-	4.A/	li-	4.d\	li-
*custos:D	*	*	*	*	*
8D/	-be-	8A/	-be-	8d\	-be-
!LO:PB:g=original	!	!	!	!	!
=8-	=8-	=8-	=8-	=8-	=8-
4.D/	-rans	4.A/	-rans	4.d\	-rans
8C#X/	ne	8A/	ne	8e\	ne
8BB/	per-	8d\	per-	8f#\	per-
8BB/	-de-	8d\	de-	8f#X\	-de-
8AA/	-ret	8e\	-ret	8a\	-ret
8C#/	quos	8e\	quos	8a\	quod
(4D/	con-	(4f#X\	con-	4.a\	con-
8.E\)	.	8.e\)	.	.	.
.	.	.	.	8g#X\	-di-
16E\	-di-	16e\	-di-	.	.
4.AA,</	-dit	4.e\	-dit	4.a,<\	-dit
8AA/	ne	8e\	ne	8a\	ne
=9-	=9-	=9-	=9-	=9-	=9-
8.BB/	per-	8.d\	pen-	8f#\	.
.	.	.	.	8f#\	per-
16AA/	-de-	16c#X\	-de-	.	.
8GG/	-ret	8B\	-ret	8gny\	-de-
8FF#/	quos	8d\	quos	8a\	-ret
4GG/	con-	4.d\	con-	8g\L	quod
.	.	.	.	8f#\J	.
8.AA/	.	.	.	8.e\	con-
.	.	8c#X\	-di-	.	.
16AA/	-di-	.	.	16e\	-di-
*	*	*custos:d	*	*custos:f	*
1D	-dit	1d	-dit	1f#X	-dit
!	!	!LO:LB:g=original	!	!LO:LB:g=original	!
=10-	=10-	=10-	=10-	=10-	=10-
*M3/1	*	*M3/1	*	*M3/1	*
1D	ca-	1d	Ca-	1f#X	Ca-
1D	-ſtae	1f#X	-stae	1a	-stae
*custos:D	*	*	*	*	*
1C#X	Pa-	1e	Pa-	1a	Pa-
!LO:LB:g=original	!	!	!	!	!
=11-	=11-	=11-	=11-	=11-	=11-
0D	-ren-	0d	-ren-	0a	-ren-
1AA	-tis	1c#X	-tis	1a	-tis
=12-	=12-	=12-	=12-	=12-	=12-
0BB	Vi-	0B	Vi-	0a	Vi-
1BB	-sce-	1B	-sce-	1g#X	-ſce-
=13-	=13-	=13-	=13-	=13-	=13-
0AA	-ra	0E	-ra	0a	-ra
1C#X	cae-	1A	cae-	1a	cae-
=14-	=14-	=14-	=14-	=14-	=14-
!	!	!	!	!LO:TX:b:t=P:problem=♯ below	!
1.D	-le-	1.A	-le-	1.f#X	-le-
*	*	*	*	*2\right	*
2D/	-stis	2A/	-ſtis	2f#\	-ſtis
1D	cae-	1A	cae-	1f#	cae-
=15-	=15-	=15-	=15-	=15-	=15-
1.E	-le-	1.G#X	-le-	1.e	-le-
2D/	-ſtis	2G#/	-ſtis	2e\	-ſtis
1C#X	in-	1A	in-	1e	in-
=16-	=16-	=16-	=16-	=16-	=16-
1D	-trat	1A	-trat	1f#X	-trat
1.E	gra-	1.A	gra-	1.e	gra-
*2\right	*	*	*	*	*
*	*	*custos:A	*	*	*
2E\	-ti-	2G#/	-ti-	2e\	-ti-
!	!	!LO:LB:g=original	!	!	!
=17-	=17-	=17-	=17-	=17-	=17-
0AA	-a	0A	-a	0e	-a
*	*	*	*	*custos:d	*
!	!	!	!	!LO:TX:t=P:problem=♯ above	!
1F#X	Ven-	1A	Ven-	1f#X	Ven-
!	!	!	!	!LO:LB:g=original	!
=18-	=18-	=18-	=18-	=18-	=18-
0G	-ter	0B	-ter	0d	-ter
*custos:BB	*	*	*	*	*
1E	Pu-	1e	Pu-	1gny	pu-
!LO:LB:g=original	!	!	!	!	!
=19-	=19-	=19-	=19-	=19-	=19-
0BB	-el-	1d#X	-el-	0f#X	-el-
.	.	1B	-lae	.	.
1Cny	-lae	0e	.	(2e\	-lae
.	.	.	.	2f#,<\)	.
=20-	=20-	=20-	=20-	=20-	=20-
0BB	ba-	.	.	1g	ba-
*	*	*2\right	*	*	*
.	.	2d#X\	ba-	2f#X\	.
.	.	2c#\	.	2e\	.
1BB	-iu-	2.d#\	.	2.f#\	.
.	.	4d#\	-iu-	4f#\	-iu-
=21-	=21-	=21-	=21-	=21-	=21-
!	!	!LO:TX:t=P:global:problem=oddech jako rozdzielacz słów	!	!	!
0E	-lat	0e,<	-lat	0e,<	-lat
1C#X	Se-	1e	Se-	1e	Se-
=22-	=22-	=22-	=22-	=22-	=22-
1.D	-cre-	1.dny	-cre-	1.f#X	-cre-
2C#/	-ta	2A/	-ta	2e\	-ta
1BB	quae	1B	quae	1d	quae
=23-	=23-	=23-	=23-	=23-	=23-
1BB	non	1B	non	1f#	non
1.F#	No-	1.B	no-	1.f#X	no-
2F#X\	-ue-	2A#X/	-ue-	2f#\	-ue-
=24-	=24-	=24-	=24-	=24-	=24-
0BB	-rat	0B	-rat	0f#X	-rat
*	*	*custos:e	*	*custos:e	*
1E	Se-	1B	Se-	1g	Se-
!	!	!LO:LB:g=original	!	!LO:LB:g=original	!
=25-	=25-	=25-	=25-	=25-	=25-
1.C#X	-cre-	1.e	-cre-	1.e	-cre-
2C#/	-ta	2e\	-ta	2e\	-ta
1D	Se-	1d	Se-	1f#	se-
=26-	=26-	=26-	=26-	=26-	=26-
1.G	-cre-	2d\	-cre-	1.g	-cre-
.	.	2cny\	-ta	.	.
.	.	0B	quae	.	.
2Fny\	-ta	.	.	2a\	-ta
1E	quae	.	.	1g	quae
=27-	=27-	=27-	=27-	=27-	=27-
*custos:A	*	*	*	*	*
!LO:SIC:v:t=1F#	!	!	!	!	!
1F	non	1Any	non	1f#X	non
!LO:LB:g=original	!	!	!	!	!
1.A	No-	1.A	No-	1.e	No-
2A\	-ue-	2A/	-ue-	2e\	-ue-
=28-	=28-	=28-	=28-	=28-	=28-
0.D	-rat	0.A	-rat	0.f#X	-rat
=29-	=29-	=29-	=29-	=29-	=29-
*M2/1	*	*M2/1	*	*M2/1	*
*met(C.)	*	*met(C.)	*	*met(C.)	*
8r	.	8r	.	8r	.
8D/	Do-	8F#X/	Do-	8d\	Do-
8D/	-mus	8A/	-mus	8f#X\	-mus
8C#X/	pu-	8A/	pu-	8a\	pu-
4D/	-di-	4d\	-di-	4a,<\	-di-
4AA/	-ci	4c#X\	-ci	4a\	-ci
4.BB/	pe-	4.B\	pe-	4.a\	pe-
*	*	*	*	*custos:a	*
8BB/	-cto-	8B\	-cto-	8g#X\	-cto-
!	!	!	!	!LO:LB:g=original	!
4.AA/	-ris	4.E/	-ris	4.a\	-ris
*	*	*custos:d	*	*	*
8C#/	tem-	8A/	tem-	8e\	tem-
!	!	!LO:LB:g=original	!	!	!
=30-	=30-	=30-	=30-	=30-	=30-
8D/	-plum	8d\	-plum	8f#\	-plum
8C#X/	re-	8A/	re-	8e\	re-
8BB/	-pen-	8G#X/	-pen-	8d\	-pen-
8AA/	-te	8A/	-te	8e\	-te
4.E\	fit	4.A/	fit	4.e\	fit
8E\	De-	8G#X/	De-	8e\	De-
4.AA/	-i	4.c#X\	-i	4.e\	-i
8FF#X/	in-	8A/	in-	8f#X\	in-
*custos:GG	*	*	*	*	*
4FF#/	-ta-	4.d\	-ta-	4a\	-ta-
!LO:LB:g=original	!	!	!	!	!
4GG/	.	.	.	16gny\LL	-cta
.	.	.	.	16f#\	.
.	.	8d\	-cta	16g\	.
.	.	.	.	16a\JJ	.
=31-	=31-	=31-	=31-	=31-	=31-
4BB/	.	4d\	Vo-	8g\L	Vi-
.	.	.	.	16a\L	.
.	.	.	.	16g\JJ	.
8C#X/	-cta	4A/	-lum	8f#\L	-rum
8C#/	ne-	.	.	8e\J	.
[4.D/	-sci-	4.A/	ne-	4.d\	ne-
8D/]	.	8A/	-sci-	8d\	-sci-
4.D/	-ens	4.A/	-ens	4.d\	-ens
8C#X/	Vi-	8A/	con-	8e\	con-
8BB/	-rum	8d\	-ce-	8f#\	-ce-
*	*	*	*	*custos:a	*
8BB/	con-	8d\	-pit	8f#X\	-pit
!	!	!	!	!LO:LB:g=original	!
8AA/	-ce-	8e\	al-	8a\	al-
8C#X/	-pit	8e\	-uo	8a\	-uo
=32-	=32-	=32-	=32-	=32-	=32-
*	*	*custos:e	*	*	*
8D/	al-	(4f#X\	Fi-	4.a\	Fi-
8D/	-uo	.	.	.	.
!	!	!LO:LB:g=original	!	!	!
!	!	!LO:TX:a:t=P:problem=brak zakończenia łuku	!	!	!
8.E\	Fi-	8.e\)	.	.	.
.	.	.	.	8g#X\	-li-
16E\	-li-	16e\	-li-	.	.
4.AA/	-um	4.e\	-um	4.a\	-um
8AA/	con-	8e\	con-	8a\	con-
8.BB/	-ce-	8.d\	-ce-	8f#\	-ce-
.	.	.	.	8f#\	-pit
16AA/	-pit	16c#X\	-pit	.	.
8GG/	al-	8B\	al-	8gny\	al-
8FF#/	-uo	8d\	-uo	8a\	-uo
(4GG/	Fi-	4.d\	Fi-	8g\L	Fi-
.	.	.	.	8f#\J	.
8.AA/)	.	.	.	8.e\	.
.	.	8c#X\	-li-	.	.
*custos:D	*	*	*	*	*
16AA/	-li-	.	.	16e\	-li-
!LO:LB:g=original	!	!	!	!	!
=33-	=33-	=33-	=33-	=33-	=33-
1D	-um	1d	-um	1f#X	-um.
=34-	=34-	=34-	=34-	=34-	=34-
*M3/1	*	*M3/1	*	*M3/1	*
1D	E-	1d	E-	1f#X	E-
1D	-ni-	1f#X	-ni-	1a	-ni-
1C#X	-ti-	1e	-ti-	1a	-ti-
=35-	=35-	=35-	=35-	=35-	=35-
0D	-tur	0d	-tur	0a	-tur
*	*	*	*	*custos:a	*
1AA	pu-	1c#X	pu-	1a	pu-
!	!	!	!	!LO:PB:g=original	!
=36-	=36-	=36-	=36-	=36-	=36-
0BB	-er-	0B	-er-	0a	-er-
*	*	*custos:E	*	*	*
1BB	-pe-	1B	-pe-	1g#X	-pe-
!	!	!LO:PB:g=original	!	!	!
=37-	=37-	=37-	=37-	=37-	=37-
0AA	-ra	0E	-ra	0a	-ra
1C#X	quem	1A	quem	1a	quem
=38-	=38-	=38-	=38-	=38-	=38-
1.D	Ga-	1.A	Ga-	1.f#	Ga-
!	!	!	!	!LO:TX:t=P:problem=# above	!
2D/	-bri-	2A/	-bri-	2f#X\	-bri-
1D	-el	1A	-el	1f#	-el
=39-	=39-	=39-	=39-	=39-	=39-
!	!	!LO:TX:t=P:problem=# above	!	!	!
1.E	Ga-	1.G#X	Ga-	1.e	Ga-
2D/	-bri-	2G#/	-bri-	2e\	-bri-
1C#X	-el	1A	-el	1e	-el
=40-	=40-	=40-	=40-	=40-	=40-
*custos:E	*	*	*	*	*
1D	prae-	1A	prae-	1f#X	prae-
!LO:LB:g=original	!	!	!	!	!
1.E	-di-	1.A	-di-	1.e	-di-
2E\	-xe-	2G#X/	-xe-	2e\	-xe-
=41-	=41-	=41-	=41-	=41-	=41-
0AA	-rat	0A	-rat	0e	-rat
1F#X	quem	1A	quem	1f#X	quem
=42-	=42-	=42-	=42-	=42-	=42-
0G	Ven-	0B	Ven-	0d	Ven-
1E	-tre	1e	-tre	1gny	-tre
=43-	=43-	=43-	=43-	=43-	=43-
0BB	Ma-	1d#X	Ma-	0f#	Ma-
.	.	1B	.	.	.
*	*	*col	*	*	*
*	*	*custos:d	*	*	*
1Cny	-tris	0e	-tris	(2e\	-tris
*	*	*Xcol	*	*	*
*	*	*	*	*custos:g	*
.	.	.	.	2f#\)	.
!	!	!	!	!LO:LB:g=original	!
=44-	=44-	=44-	=44-	=44-	=44-
0BB	ge-	.	.	1g	ge-
.	.	2d#X\	ge-	2f#X\	.
.	.	2c#X\	.	2e\	.
1BB	-ſti-	2.d#\	.	2.f#\	.
.	.	4d#\	-sti-	4f#\	-sti-
=45-	=45-	=45-	=45-	=45-	=45-
0E	-ens	0e	-ens	0e	-ens
1C#X	Ba-	1e	Ba-	1e	Ba-
=46-	=46-	=46-	=46-	=46-	=46-
1.D	-pti-	1.dny	-pti-	1.f#X	-pti-
2Cny/	-ſma	2A/	-sta	2e\	-sta
1BB	clau-	1B	lau-	1d	clau-
=47-	=47-	=47-	=47-	=47-	=47-
1BB	-ſum	1B	-ſum	1f#	-ſum
1.F#	Sen-	1.B	Sen-	1.f#X	Sen-
*custos:AA	*	*	*	*	*
!	!	!LO:TX:b:t=P:problem=# below	!	!	!
2F#X\	-se-	2A#X/	-se-	2f#\	-se-
!LO:PB:g=original	!	!	!	!	!
=48-	=48-	=48-	=48-	=48-	=48-
0BB	-rat	0B	-rat	0f#	-rat
1E	Ba-	1B	Ba-	1g	ba-
=49-	=49-	=49-	=49-	=49-	=49-
1.C#X	-pti-	1.e	-pti-	1.e	-pti-
2C#/	-sta	2e\	-ſta	2e\	-ſta
1D	Ba-	1d	clau-	1f#X	clau-
=50-	=50-	=50-	=50-	=50-	=50-
1.G	-pti-	(2d\	-ſum	1.g	.
*	*	*custos:B	*	*	*
.	.	2cny\)	.	.	.
!	!	!LO:LB:g=original	!	!	!
.	.	(0B	Sen-	.	.
2Fny\	-sta	.	.	2a\	.
1E	clau-	.	.	1g	.
=51-	=51-	=51-	=51-	=51-	=51-
!	!	!	!	!LO:TX:t=P:problem=♯ above	!
1F#X	-sum	1Any)	.	1f#X	ſum
1.A	Sen-	1.A	.	1.e	ſen-
2A\	-se-	2A/	-se-	2e\	-se-
=52-	=52-	=52-	=52-	=52-	=52-
0.D	-rat	0.A	-rat	0.f#	-rat
!	!	!	!	!LO:LB:g=original	!
=53-	=53-	=53-	=53-	=53-	=53-
1D	Foe-	1d	Fae-	1f#X	Foe-
1D	-no	1f#X	-no	1a	-no
1C#X	ia-	1e	ia-	1a	ia-
=54-	=54-	=54-	=54-	=54-	=54-
0D	-ce-	0d	-ce-	0a	-ce-
*custos:BB	*	*	*	*	*
1AA	-re	1c#X	-re	1a	-re
!LO:LB:g=original	!	!	!	!	!
=55-	=55-	=55-	=55-	=55-	=55-
0BB	per-	0B	per-	0a	per-
1BB	-tu-	1B	-tu-	1g#X	-tu-
=56-	=56-	=56-	=56-	=56-	=56-
0AA	-lit	0E,<	-lit	0a	-lit
1C#X	prae-	1A	prae-	1a	prae-
=57-	=57-	=57-	=57-	=57-	=57-
!	!	!	!	!LO:TX:t=P:problem=♯ above	!
1.D	-ſe-	1.A	-ſe-	1.f#X	-ſe-
2D/	-pe	2A/	-pe	2f#\	-pe
*	*	*custos:G	*	*	*
1D	prae	1A	prae-	1f#	prae-
!	!	!LO:LB:g=original	!	!	!
=58-	=58-	=58-	=58-	=58-	=58-
!	!	!LO:TX:t=P:problem=♯ above	!	!	!
1.E	Se-	1.G#X	-se-	1.e	-ſe-
2D/	-pe	2G#/	-pe	2e\	-pe
1C#X	non	1A	non	1e	non
=59-	=59-	=59-	=59-	=59-	=59-
1D	ab-	1A	ab-	1f#X	ab-
1.E	-hor-	1.A	-hor-	1.e	-hor-
!	!	!LO:TX:t=P:problem=♯ above	!	!	!
2E\	-ru-	2G#X/	-ru-	2e\	-ru-
=60-	=60-	=60-	=60-	=60-	=60-
0AA	-it	0A,<	-it	0e	-it
*	*	*	*	*custos:d	*
1F#X	et	1A	et	1f#X	et
!	!	!	!	!LO:LB:g=original	!
=61-	=61-	=61-	=61-	=61-	=61-
0G	la-	0B	la-	0d	la-
*custos:BB	*	*	*	*	*
1E	-cte	1e	-cte	1gny	-cte
!LO:LB:g=original	!	!	!	!	!
=62-	=62-	=62-	=62-	=62-	=62-
0BB	mo-	1d#X	Mo-	0f#	Mo-
.	.	1B	-di-	.	.
*	*	*col	*	*	*
1Cny	-di-	0e	-co	(2e\	-di-
*	*	*Xcol	*	*	*
.	.	.	.	2f#\)	.
=63-	=63-	=63-	=63-	=63-	=63-
0BB	-co	.	.	1g	-co
.	.	(2d#X\	pa-	(2f#X\	pa-
.	.	2c#X\)	.	2e\)	.
1BB	pa-	2.d#\	.	2.f#\	.
*	*	*custos:e	*	*	*
.	.	4d#\	-stus	4f#\	-ſtus
!	!	!LO:LB:g=original	!	!	!
=64-	=64-	=64-	=64-	=64-	=64-
0E	-ſtus	0e	eſt	0e	eſt
1C#X	eſt	1e	per	1e	per
=65-	=65-	=65-	=65-	=65-	=65-
1.D	per	1.dny	quem	(1.f#X	quem
2C#X/	quem	2A/	nec	2e\)	.
[>1BB	nec	1B	a-	1d	nec
=66-	=66-	=66-	=66-	=66-	=66-
1BB]	.	1B	-les	1f#	a-
1.F#X	a-	1.B	e-	1.f#X	-les
2F#\	-les	2A#X/	-ſu-	2f#\	e-
=67-	=67-	=67-	=67-	=67-	=67-
0BB	e-	0B,<	-rit	0f#	-ſu-
1E	-su-	1B	per	1g	-rit
=68-	=68-	=68-	=68-	=68-	=68-
1.C#X	-rit	1.e	.	1.e	.
*custos:D	*	*	*	*custos:f	*
2C#/	per	2e\	quem	2e\	per
!LO:LB:g=original	!	!	!	!LO:LB:g=original	!
1D	quem	1d	nec	1f#X	quem
=69-	=69-	=69-	=69-	=69-	=69-
1.G	.	(2d\	a-	[1.g	a-
.	.	2cny\)	.	.	.
.	.	0B	les	.	.
2Fny\	nec	.	.	2g\]	.
1E	a-	.	.	1g	-les
=70-	=70-	=70-	=70-	=70-	=70-
1F#X	-les	1Any	e-	1f#X	e-
1.A	e-	1.A	.	1.e	.
2A\	-ſu-	2A/	-ſu-	2e\	-su-
=71-	=71-	=71-	=71-	=71-	=71-
*	*	*custos:f	*	*	*
!LO:TX:t=P:problem=kreska pseudotaktowa	!	!	!	!	!
0.D	-rit	0.A	-rit	0.f#	-rit
!	!	!LO:LB:g=original	!	!	!
=72-	=72-	=72-	=72-	=72-	=72-
0D	gau-	0.r	.	1.a	Gau-
.	.	.	.	2g\	.
1D	-de	.	.	2f#\	.
.	.	.	.	2e\	.
=73-	=73-	=73-	=73-	=73-	=73-
1.D	gau-	1.f#X	gau-	0d	.
2Cny/	.	2e\	.	.	.
2BB/	.	2d\	.	1d	det
2AA/	.	2c#X\	.	.	.
=74-	=74-	=74-	=74-	=74-	=74-
0GG	.	1.B	.	0.r	.
.	.	2A/	.	.	.
1GG	-de	2Gny/	.	.	.
.	.	2F#X/	.	.	.
=75-	=75-	=75-	=75-	=75-	=75-
*	*ij	*	*	*	*ij
1.G	gau-	0G	.	1.b	Gau-
2Fny\	.	.	.	2a\	.
2E\	.	1G	-det	2g\	.
*custos:C	*	*	*	*	*
2D\	.	.	.	2f#\	.
!LO:LB:g=original	!	!	!	!	!
=76-	=76-	=76-	=76-	=76-	=76-
*	*	*	*ij	*	*
0C	.	1.cny	gau-	0e	.
.	.	2B\	.	.	.
1C	-de	2A/	.	1e	-det
*	*	*	*	*	*Xij
.	.	2G/	.	.	.
=77-	=77-	=77-	=77-	=77-	=77-
*	*	*	*	*custos:f	*
0D	gau-	0F#	.	0.r	.
1D	-de	1F#	-det	.	.
*	*Xij	*	*Xij	*	*
!	!	!	!	!LO:LB:g=original	!
=78-	=78-	=78-	=78-	=78-	=78-
*	*	*custos:B	*	*	*
1D	cho-	1F#X	cho-	1f#X	cho-
!	!	!LO:LB:g=original	!	!	!
1BB	-rus	1B	-rus	1g#X	-rus
1AA	cae-	(2c\	cae-	1a	ce-
.	.	2d\)	.	.	.
=79-	=79-	=79-	=79-	=79-	=79-
1.E	-le-	1.e	-le-	1.g#	-les-
!	!	!	!	!LO:TX:b:t=P:problem=# below, pomiędzy nutami	!
2E\	-ſti-	2e\	-ſti-	2g#X\	-ti-
1E	-um	1B	-um	1g#	-um
=80-	=80-	=80-	=80-	=80-	=80-
!	!	!	!	!LO:N:acc=-	!
1C	et	1c	et	1gn	et
1.F	An-	1.A	An-	1.a	An-
2E\	-ge-	2A/	-ge-	2g\	-ge-
=81-	=81-	=81-	=81-	=81-	=81-
0D	-li	0B	-li	0f#	-li
.	.	.	.	.	.
1D	et	1B	et	1f#X	et
=82-	=82-	=82-	=82-	=82-	=82-
!	!	!LO:TX:t=P:problem=♯ above	!	!LO:SIC:v:t=1.g#	!
1.E	An-	1.G#X	An-	1.g	An-
.	.	.	.	.	.
.	.	.	.	.	.
2D/	-ge-	2G#/	-ge-	2fny\	-ge-
1C	-li	1A	-li	1e	-li
=83-	=83-	=83-	=83-	=83-	=83-
1.D	ce-	1.F#X	ca-	1.f#X	ca-
.	.	.	.	.	.
.	.	.	.	.	.
*custos:BB	*	*	*	*	*
2C/	.	4Gny/	.	2e\	.
.	.	4A/	.	.	.
*	*	*custos:A	*	*	*
!LO:LB:g=original	!	!	!	!	!
1BB	.	1B	.	2f#\	.
.	.	.	.	2g\	.
!	!	!LO:PB:g=original	!	!	!
=84-	=84-	=84-	=84-	=84-	=84-
1C	-nunt	1A	-nunt	2a\	.
.	.	.	.	2e\	nunt
*	*	*	*	*custos:e	*
0E	DE-	1.A	De-	0e	De-
.	.	2G#X/	.	.	.
!	!	!	!	!LO:LB:g=original	!
=85-	=85-	=85-	=85-	=85-	=85-
0AA	-o	0A,<	-o	0e,<	-o
1A	pa-	1c#X	pa-	1e	pa-
=86-	=86-	=86-	=86-	=86-	=86-
1.F#X	-la-	1.d	-la-	1.a	-lam-
2F#\	-m(us)	2d\	-m(us)	2a\	-q(ue)
1G	fit	1d	fit	1g	fit
=87-	=87-	=87-	=87-	=87-	=87-
1BB	Pa-	1d	Pa-	1g	pa-
1.D	-sto-	1.d	-sto-	1.g	-ſto-
2D/	-ri-	2d\	-ri-	2f#X\	-ri-
=88-	=88-	=88-	=88-	=88-	=88-
0GG	-bus	0d	-bus	0g,<	-bus
1D	pa-	1B	Pa-	1f#X	pa-
=89-	=89-	=89-	=89-	=89-	=89-
1.E	-ſtor	1.e	-ſtor	1.g	-ſtor
!LO:TX:t=P:problem=# above	!	!	!	!	!
2F#X\	cre-	2e\	cre-	2f#\	cre-
1G	-a-	1B	-a-	1e	-a-
=90-	=90-	=90-	=90-	=90-	=90-
*custos:B	*	*	*	*	*
1A	-tor	1e	-tor	1a	-tor
!LO:LB:g=original	!	!	!	!	!
1.B	om-	1.e	om-	1.f#	om-
*	*	*custos:e	*	*	*
!	!	!	!	!LO:TX:b:t=P:problem=# below, pomiędzy nutami	!
2B\	-ni-	2d#X\	-ni-	2f#X\	-ni-
!	!	!LO:LB:g=original	!	!	!
=91-	=91-	=91-	=91-	=91-	=91-
0E	-um	0e	-um	0e,<	-um
1C#X	pa-	1e	pa-	1e	pa-
=92-	=92-	=92-	=92-	=92-	=92-
1.D	-ſtor	1.dny	-ſtor	1.f#X	-stor
2E\	cre-	2d\	cre-	2g\	cre-
*	*	*	*	*custos:e	*
1F#X	-a-	1A	-a-	1a	-a-
!	!	!	!	!LO:PB:g=original	!
=93-	=93-	=93-	=93-	=93-	=93-
1G	-tor	1B	-tor	1e	-tor
1.A	om-	1.A	om-	1.e	om-
2AA/	-ni-	2A/	-ni-	2e\	-ni-
=94-	=94-	=94-	=94-	=94-	=94-
0.D	-um	0.A	-um	0.f#X	-um
=95-	=95-	=95-	=95-	=95-	=95-
*M2/1	*	*M2/1	*	*M2/1	*
*met(C.)	*	*met(C.)	*	*met(C.)	*
4D/	JE-	8r	.	8r	.
.	.	8F#X/	JE-	8d\	Je-
8D/	-ſu	8A/	-su	8f#X\	-su
!LO:SIC:v:s=8C#	!	!	!	!	!
8Cny/	ti-	8A/	ti-	8a\	ti-
*custos:AA	*	*	*	*	*
4D/	-bi	4d\	-bi	4a\	-bi
!LO:PB:g=original	!	!	!	!	!
4AA/	ſit	4c#X\	ſit	4a\	ſit
4.BB/	glo-	4.B\	glo-	4.a\	glo-
8BB/	-ri-	8B\	-ri-	8g#X\	-ir-
4.AA/	-a	4.E/	-a	4.a\	-a
!	!	!LO:SIC:v:t=8A\	!	!	!
8C#X/	qui	8B\	qui	8e\	qui
!	!	!LO:LB:g=original	!	!	!
=96-	=96-	=96-	=96-	=96-	=96-
8D/	Na-	8d\	Na-	8f#X\	Na-
8C#X/	-tus	8A/	-tus	8e\	-tus
8BB/	eſt	8G#X/	es	8d\	es
*	*	*	*	*custos:e	*
8AA/	de	8A/	de	8c#X/	de
!	!	!	!	!LO:LB:g=original	!
4.E\	Vir-	4.A/	Vir-	4.e\	Vir-
8E\	-gi-	8G#X/	-gi-	8e\	-gi-
4.AA/	-ne	4.c#X\	-ne	4.e\	-ne
8FF#X/	cum	8A/	cum	8f#\	cum
4FF#/	Pa-	4.d\	Pa-	4a\	Pa-
8GG/	-tre	.	.	(16gny\LL	tre
.	.	.	.	16f#\JJ)	.
8GG/	et	8d\	-tre	(16g\LL	et
.	.	.	.	16a\JJ)	.
=97-	=97-	=97-	=97-	=97-	=97-
4BB/	al-	4d\	et	8g\L	al-
.	.	.	.	16a\L	.
.	.	.	.	16g\JJ	.
4C#X/	-mo	8.A/	al-	8f#\L	-mo
.	.	.	.	8e\J	.
.	.	16A/	-mo	.	.
4.D/	Spi-	4.A/	Spi-	4.d\	Spi-
*custos:D	*	*	*	*	*
8D/	-ritu	8A/	-ri-	8d\	-ri-
!LO:LB:g=original	!	!	!	!	!
4.D/	[[Spi-	4.A/	-tu	4.d\	-tu
8C#X/	-ri-	8A/	in	8e\	in
8BB/	-tu]]	8d\	Sae-	8f#\	Sae-
8BB/	in	8d\	-cu-	8f#X\	-cu-
8AA/	Sae-	8e\	-lo-	8a\	-lo-
8C#X/	-cu-	8e\	-rum	8a\	-rum
=98-	=98-	=98-	=98-	=98-	=98-
*	*	*custos:e	*	*	*
4D/	-lo-	4f#X\	ſae-	4.a\	Sae-
!	!	!LO:LB:g=original	!	!	!
8.E\	-rum	8.e\	.	.	.
.	.	.	.	8g#X\	-cu-
16E\	Sae-	16e\	-cu-	.	.
4.AA/	-cu-	4.e,<\	-la	4.a\	-la
*	*	*	*	*custos:f	*
8AA/	-la	8e\	in	8a\	in
!	!	!	!	!LO:LB:g=original	!
8.BB/	in	8.d\	ſae-	8f#\	Sae-
.	.	.	.	8f#X\	-cu-
16AA/	ſae-	16c#X\	-cu-	.	.
8GG/	-cu-	8B\	-lo-	8gny\	-lo-
8FF#X/	-lo-	8d\	-rum	8a\	-rum
4GG/	-rum	4.d\	Sae-	8g\L	Sae-
!	!	!	!	!LO:TX:t=P:problem=♯ above	!
.	.	.	.	8f#X\J	.
8.AA/	Sae-	.	.	8.e\	.
!	!	!LO:TX:t=P:problem=♯ above	!	!	!
.	.	8c#X\	-cu-	.	.
16AA/	-cu-	.	.	16e\	-cu-
=99-	=99-	=99-	=99-	=99-	=99-
4D\	-la	4d\	-la	4f#X\	-la.
4r	.	4r	.	4r	.
2r	.	2r	.	2r	.
==	==	==	==	==	==
*-	*-	*-	*-	*-	*-
!!!system-decoration: [(s1,s2,s3)]
!!!RDF**kern: > = above
!!!RDF**kern: < = below
!!!ENC: Marta Lawrence
!!!END: 2021-07-11
!!!ENC: Krzysztof Stępień
!!!END: 2021-06-25
